src/xmb/monochrome/Nintendo - Satellaview-content.svg

<?xml version="1.0" encoding="UTF-8" standalone="no"?>
<!-- Generator: Adobe Illustrator 16.0.0, SVG Export Plug-In . SVG Version: 6.00 Build 0)  -->

<svg
   xmlns:dc="http://purl.org/dc/elements/1.1/"
   xmlns:cc="http://creativecommons.org/ns#"
   xmlns:rdf="http://www.w3.org/1999/02/22-rdf-syntax-ns#"
   xmlns:svg="http://www.w3.org/2000/svg"
   xmlns="http://www.w3.org/2000/svg"
   xmlns:sodipodi="http://sodipodi.sourceforge.net/DTD/sodipodi-0.dtd"
   xmlns:inkscape="http://www.inkscape.org/namespaces/inkscape"
   version="1.1"
   id="svg2"
   inkscape:export-filename="/home/kivutar/libretro-super/retroarch/media/assets/xmb/monochrome/png/Nintendo - Satellaview-content.png"
   inkscape:export-xdpi="360"
   inkscape:version="0.48.5 r10040"
   inkscape:export-ydpi="360"
   sodipodi:docname="Nintendo - Satellaview.svg"
   x="0px"
   y="0px"
   width="64px"
   height="64px"
   viewBox="0 128 64 64"
   enable-background="new 0 128 64 64"
   xml:space="preserve"><metadata
     id="metadata8"><rdf:RDF><cc:Work
         rdf:about=""><dc:format>image/svg+xml</dc:format><dc:type
           rdf:resource="http://purl.org/dc/dcmitype/StillImage" /><dc:title></dc:title></cc:Work></rdf:RDF></metadata><defs
     id="defs6" /><sodipodi:namedview
     pagecolor="#808080"
     bordercolor="#666666"
     borderopacity="1"
     objecttolerance="10"
     gridtolerance="10"
     guidetolerance="10"
     inkscape:pageopacity="0"
     inkscape:pageshadow="2"
     inkscape:window-width="1440"
     inkscape:window-height="836"
     id="namedview4"
     showgrid="true"
     inkscape:zoom="7.375"
     inkscape:cx="36.135219"
     inkscape:cy="23.408769"
     inkscape:window-x="0"
     inkscape:window-y="27"
     inkscape:window-maximized="1"
     inkscape:current-layer="svg2"><inkscape:grid
       type="xygrid"
       id="grid2985"
       empspacing="4"
       visible="true"
       enabled="true"
       snapvisiblegridlinesonly="true" /></sodipodi:namedview><path
     style="fill:#ffffff"
     d="M 10.4375 9 C 10.015625 9.046875 10 10 10 10 L 10 11 C 10 11 10.224 11.5 10.5 11.5 C 10.776 11.5 11 11.724 11 12 C 11 12.276 10.776 12.5 10.5 12.5 C 10.224 12.5 10 12.724 10 13 C 10 13.276 10.224 13.5 10.5 13.5 C 10.776 13.5 11 13.724 11 14 C 11 14.276 10.776 14.5 10.5 14.5 C 10.224 14.5 10 14.724 10 15 C 10 15.276 10.224 15.5 10.5 15.5 C 10.776 15.5 11 15.724 11 16 C 11 16.276 10.776 16.5 10.5 16.5 C 10.224 16.5 10 16.724 10 17 C 10 17.276 10.224 17.5 10.5 17.5 C 10.776 17.5 11 17.724 11 18 C 11 18.276 10.776 18.5 10.5 18.5 C 10.224 18.5 10 18.724 10 19 L 10 54 C 10 54.466 10 55 11 55 L 17 55 C 17.553 55 18 54.553 18 54 C 18 54.553 18.447 55 19 55 L 21 55 L 21 44.5 C 21 43.67765 21.677649 43 22.5 43 L 41.5 43 C 42.322351 43 43 43.67765 43 44.5 L 43 55 L 45 55 C 45.553 55 46 54.553 46 54 C 46 54.553 46.447 55 47 55 L 53 55 C 54 55 54 55 54 54 L 54 19 C 54 18.724 53.776 18.5 53.5 18.5 C 53.224 18.5 53 18.276 53 18 C 53 17.724 53.224 17.5 53.5 17.5 C 53.776 17.5 54 17.276 54 17 C 54 16.724 53.776 16.5 53.5 16.5 C 53.224 16.5 53 16.276 53 16 C 53 15.724 53.224 15.5 53.5 15.5 C 53.776 15.5 54 15.276 54 15 C 54 14.724 53.776 14.5 53.5 14.5 C 53.224 14.5 53 14.276 53 14 C 53 13.724 53.224 13.5 53.5 13.5 C 53.776 13.5 54 13.276 54 13 C 54 12.724 53.776 12.5 53.5 12.5 C 53.224 12.5 53 12.276 53 12 C 53 11.724 53.224 11.5 53.5 11.5 C 53.776 11.5 54 11.276 54 11 L 54 10 C 54 9 54 9 53 9 L 47 9 C 46.447 9 46 9.447 46 10 C 46 9.447 45.553 9 45 9 L 43 9 L 43 17 A 0.50005 0.50005 0 0 1 42.6875 17.46875 C 34.623368 20.4928 29.376632 20.4928 21.3125 17.46875 A 0.50005 0.50005 0 0 1 21 17 L 21 9 L 19 9 C 18.447 9 18 9.447 18 10 C 18 9.447 17.553 9 17 9 L 11 9 C 10.75 9 10.578125 8.984375 10.4375 9 z M 22 9 L 22 16.625 C 29.621844 19.43286 34.378156 19.43286 42 16.625 L 42 9 L 22 9 z M 13 20 C 13.552285 20 14 20.447715 14 21 C 14 21.552285 13.552285 22 13 22 C 12.447715 22 12 21.552285 12 21 C 12 20.447715 12.447715 20 13 20 z M 51 20 C 51.552285 20 52 20.447715 52 21 C 52 21.552285 51.552285 22 51 22 C 50.447715 22 50 21.552285 50 21 C 50 20.447715 50.447715 20 51 20 z M 16 24 L 48 24 C 49.389 24 50 24.611 50 26 L 50 37 C 50 38.39 49.389 39 48 39 L 16 39 C 14.611 39 14 38.39 14 37 L 14 26 C 14 24.611 14.611 24 16 24 z M 17 26 C 16.447 26 16 26.447 16 27 L 16 36 C 16 36.553 16.447 37 17 37 L 47 37 C 47.553 37 48 36.553 48 36 L 48 27 C 48 26.447 47.553 26 47 26 L 17 26 z M 22.5 44 C 22.214351 44 22 44.21435 22 44.5 L 22 55 L 42 55 L 42 44.5 C 42 44.21435 41.785649 44 41.5 44 L 22.5 44 z M 13 51 C 13.553 51 14 51.447 14 52 C 14 52.553 13.553 53 13 53 C 12.447 53 12 52.553 12 52 C 12 51.447 12.447 51 13 51 z M 51 51 C 51.553 51 52 51.447 52 52 C 52 52.553 51.553 53 51 53 C 50.447 53 50 52.553 50 52 C 50 51.447 50.447 51 51 51 z "
     transform="translate(0,128)"
     id="Super_NES_1_" /></svg>

<svg xmlns="http://www.w3.org/2000/svg" xml:space="preserve" width="64" height="64" viewBox="0 128 64 64"><path d="M10.438 9c-.422.047-.438 1-.438 1v1s.224.5.5.5a.5.5 0 0 1 0 1 .5.5 0 0 0 0 1 .5.5 0 0 1 0 1 .5.5 0 0 0 0 1 .5.5 0 0 1 0 1 .5.5 0 0 0 0 1 .5.5 0 0 1 0 1 .5.5 0 0 0-.5.5v35c0 .466 0 1 1 1h6a1 1 0 0 0 1-1 1 1 0 0 0 1 1h2V44.5c0-.822.678-1.5 1.5-1.5h19c.822 0 1.5.678 1.5 1.5V55h2a1 1 0 0 0 1-1 1 1 0 0 0 1 1h6c1 0 1 0 1-1V19a.5.5 0 0 0-.5-.5.5.5 0 0 1 0-1 .5.5 0 0 0 0-1 .5.5 0 0 1 0-1 .5.5 0 0 0 0-1 .5.5 0 0 1 0-1 .5.5 0 0 0 0-1 .5.5 0 0 1 0-1 .5.5 0 0 0 .5-.5v-1c0-1 0-1-1-1h-6a1 1 0 0 0-1 1 1 1 0 0 0-1-1h-2v8a.5.5 0 0 1-.312.469c-8.065 3.024-13.311 3.024-21.376 0A.5.5 0 0 1 21 17V9h-2a1 1 0 0 0-1 1 1 1 0 0 0-1-1h-6c-.25 0-.422-.016-.562 0M22 9v7.625c7.622 2.808 12.378 2.808 20 0V9zm-9 11a1 1 0 1 1 0 2 1 1 0 0 1 0-2m38 0a1 1 0 1 1 0 2 1 1 0 0 1 0-2m-35 4h32c1.389 0 2 .611 2 2v11c0 1.39-.611 2-2 2H16c-1.389 0-2-.61-2-2V26c0-1.389.611-2 2-2m1 2a1 1 0 0 0-1 1v9a1 1 0 0 0 1 1h30a1 1 0 0 0 1-1v-9a1 1 0 0 0-1-1zm5.5 18c-.286 0-.5.214-.5.5V55h20V44.5c0-.286-.214-.5-.5-.5zM13 51a1 1 0 1 1 0 2 1 1 0 1 1 0-2m38 0a1 1 0 1 1 0 2 1 1 0 1 1 0-2" style="fill:#fff" transform="translate(0 128)"/></svg>
